16/places/start-here.svg

<?xml version="1.0" encoding="UTF-8" standalone="no"?>
<!-- Created with Inkscape (http://www.inkscape.org/) -->

<svg
   width="16"
   height="16"
   id="svg4159"
   version="1.1"
   inkscape:version="1.1.2 (0a00cf5339, 2022-02-04, custom)"
   viewBox="0 0 16 16"
   sodipodi:docname="start-here.svg"
   xmlns:inkscape="http://www.inkscape.org/namespaces/inkscape"
   xmlns:sodipodi="http://sodipodi.sourceforge.net/DTD/sodipodi-0.dtd"
   xmlns="http://www.w3.org/2000/svg"
   xmlns:svg="http://www.w3.org/2000/svg"
   xmlns:rdf="http://www.w3.org/1999/02/22-rdf-syntax-ns#"
   xmlns:cc="http://creativecommons.org/ns#"
   xmlns:dc="http://purl.org/dc/elements/1.1/">
  <title
     id="title815">Boston Icons</title>
  <defs
     id="defs4161">
    <inkscape:perspective
       sodipodi:type="inkscape:persp3d"
       inkscape:vp_x="0 : 8 : 1"
       inkscape:vp_y="0 : 1000 : 0"
       inkscape:vp_z="16 : 8 : 1"
       inkscape:persp3d-origin="8 : 5.3333333 : 1"
       id="perspective4709" />
    <clipPath
       clipPathUnits="userSpaceOnUse"
       id="clipPath5603">
      <path
         style="fill:#00ffff;fill-opacity:1;stroke:none;stroke-width:0.26458335px;stroke-linecap:butt;stroke-linejoin:miter;stroke-opacity:1"
         d="m 61.912499,165.76667 -6.879168,6.87917 6.879168,6.87916 6.879167,-6.87916 z"
         id="path5605"
         inkscape:connector-curvature="0" />
    </clipPath>
  </defs>
  <sodipodi:namedview
     id="base"
     pagecolor="#ffffff"
     bordercolor="#00fff6"
     borderopacity="1"
     inkscape:pageopacity="0"
     inkscape:pageshadow="2"
     inkscape:zoom="44.395604"
     inkscape:cx="7.7259902"
     inkscape:cy="7.3993813"
     inkscape:current-layer="layer1"
     showgrid="false"
     inkscape:grid-bbox="true"
     inkscape:document-units="px"
     inkscape:window-width="1920"
     inkscape:window-height="1011"
     inkscape:window-x="0"
     inkscape:window-y="0"
     inkscape:window-maximized="1"
     showguides="false"
     inkscape:guide-bbox="true"
     inkscape:pagecheckerboard="0">
    <inkscape:grid
       type="xygrid"
       id="grid4707" />
    <sodipodi:guide
       position="7,12"
       orientation="0,1"
       id="guide835"
       inkscape:locked="false" />
    <sodipodi:guide
       position="8,3"
       orientation="0,1"
       id="guide837"
       inkscape:locked="false" />
    <sodipodi:guide
       position="5,8"
       orientation="1,0"
       id="guide839"
       inkscape:locked="false" />
    <sodipodi:guide
       position="11,8"
       orientation="1,0"
       id="guide841"
       inkscape:locked="false" />
  </sodipodi:namedview>
  <metadata
     id="metadata4164">
    <rdf:RDF>
      <cc:Work
         rdf:about="">
        <dc:format>image/svg+xml</dc:format>
        <dc:type
           rdf:resource="http://purl.org/dc/dcmitype/StillImage" />
        <dc:title>Boston Icons</dc:title>
        <cc:license
           rdf:resource="dribbble.com/chrisdiaz" />
        <dc:creator>
          <cc:Agent>
            <dc:title>Christian Díaz</dc:title>
          </cc:Agent>
        </dc:creator>
        <dc:date>2022</dc:date>
        <dc:publisher>
          <cc:Agent>
            <dc:title>Christian Díaz</dc:title>
          </cc:Agent>
        </dc:publisher>
        <dc:identifier>christiandiaz.design [at] gmail [dot] com</dc:identifier>
        <dc:subject>
          <rdf:Bag>
            <rdf:li>GNOME icon Theme</rdf:li>
          </rdf:Bag>
        </dc:subject>
        <dc:description>dribbble.com/chrisdiaz | diazchris.deviantart.com</dc:description>
      </cc:Work>
    </rdf:RDF>
  </metadata>
  <g
     id="layer1"
     inkscape:label="Layer 1"
     inkscape:groupmode="layer">
    <g
       id="g943">
      <rect
         y="0"
         x="0"
         height="16"
         width="16"
         id="rect827"
         style="fill:#252627;fill-opacity:1;fill-rule:nonzero;stroke:none;stroke-width:2;stroke-linecap:square;stroke-linejoin:round;stroke-miterlimit:4;stroke-dasharray:none;stroke-dashoffset:0;stroke-opacity:1"
         ry="1" />
      <rect
         style="fill:#373b43;stroke-linejoin:round"
         id="rect1038"
         width="14"
         height="14"
         x="1"
         y="1" />
      <path
         id="path1314"
         style="fill:#ffffff;stroke-linejoin:round"
         d="M 4,3 A 1,1 0 0 0 3,4 1,1 0 0 0 4,5 1,1 0 0 0 5,4 1,1 0 0 0 4,3 Z M 8,3 A 1,1 0 0 0 7,4 1,1 0 0 0 8,5 1,1 0 0 0 9,4 1,1 0 0 0 8,3 Z m 4,0 A 1,1 0 0 0 11,4 1,1 0 0 0 12,5 1,1 0 0 0 13,4 1,1 0 0 0 12,3 Z M 4,7 A 1,1 0 0 0 3,8 1,1 0 0 0 4,9 1,1 0 0 0 5,8 1,1 0 0 0 4,7 Z M 8,7 A 1,1 0 0 0 7,8 1,1 0 0 0 8,9 1,1 0 0 0 9,8 1,1 0 0 0 8,7 Z m 4,0 a 1,1 0 0 0 -1,1 1,1 0 0 0 1,1 1,1 0 0 0 1,-1 1,1 0 0 0 -1,-1 z m -8,4 a 1,1 0 0 0 -1,1 1,1 0 0 0 1,1 1,1 0 0 0 1,-1 1,1 0 0 0 -1,-1 z m 4,0 a 1,1 0 0 0 -1,1 1,1 0 0 0 1,1 1,1 0 0 0 1,-1 1,1 0 0 0 -1,-1 z m 4,0 a 1,1 0 0 0 -1,1 1,1 0 0 0 1,1 1,1 0 0 0 1,-1 1,1 0 0 0 -1,-1 z" />
    </g>
  </g>
</svg>

<?xml version="1.0" encoding="UTF-8" standalone="no"?>
<!-- Created with Inkscape (http://www.inkscape.org/) -->

<svg
   width="16"
   height="16"
   id="svg4159"
   version="1.1"
   inkscape:version="1.1 (c4e8f9ed74, 2021-05-24)"
   viewBox="0 0 16 16"
   sodipodi:docname="start-here.svg"
   xmlns:inkscape="http://www.inkscape.org/namespaces/inkscape"
   xmlns:sodipodi="http://sodipodi.sourceforge.net/DTD/sodipodi-0.dtd"
   xmlns="http://www.w3.org/2000/svg"
   xmlns:svg="http://www.w3.org/2000/svg"
   xmlns:rdf="http://www.w3.org/1999/02/22-rdf-syntax-ns#"
   xmlns:cc="http://creativecommons.org/ns#"
   xmlns:dc="http://purl.org/dc/elements/1.1/">
  <title
     id="title815">Boston Icons</title>
  <defs
     id="defs4161">
    <inkscape:perspective
       sodipodi:type="inkscape:persp3d"
       inkscape:vp_x="0 : 8 : 1"
       inkscape:vp_y="0 : 1000 : 0"
       inkscape:vp_z="16 : 8 : 1"
       inkscape:persp3d-origin="8 : 5.3333333 : 1"
       id="perspective4709" />
    <clipPath
       clipPathUnits="userSpaceOnUse"
       id="clipPath5603">
      <path
         style="fill:#00ffff;fill-opacity:1;stroke:none;stroke-width:0.26458335px;stroke-linecap:butt;stroke-linejoin:miter;stroke-opacity:1"
         d="m 61.912499,165.76667 -6.879168,6.87917 6.879168,6.87916 6.879167,-6.87916 z"
         id="path5605"
         inkscape:connector-curvature="0" />
    </clipPath>
  </defs>
  <sodipodi:namedview
     id="base"
     pagecolor="#ffffff"
     bordercolor="#00fff6"
     borderopacity="1"
     inkscape:pageopacity="0"
     inkscape:pageshadow="2"
     inkscape:zoom="44.395604"
     inkscape:cx="9.2238862"
     inkscape:cy="7.3993813"
     inkscape:current-layer="layer1"
     showgrid="false"
     inkscape:grid-bbox="true"
     inkscape:document-units="px"
     inkscape:window-width="1920"
     inkscape:window-height="1011"
     inkscape:window-x="0"
     inkscape:window-y="32"
     inkscape:window-maximized="1"
     showguides="false"
     inkscape:guide-bbox="true"
     inkscape:pagecheckerboard="0">
    <inkscape:grid
       type="xygrid"
       id="grid4707" />
    <sodipodi:guide
       position="7,12"
       orientation="0,1"
       id="guide835"
       inkscape:locked="false" />
    <sodipodi:guide
       position="8,3"
       orientation="0,1"
       id="guide837"
       inkscape:locked="false" />
    <sodipodi:guide
       position="5,8"
       orientation="1,0"
       id="guide839"
       inkscape:locked="false" />
    <sodipodi:guide
       position="11,8"
       orientation="1,0"
       id="guide841"
       inkscape:locked="false" />
  </sodipodi:namedview>
  <metadata
     id="metadata4164">
    <rdf:RDF>
      <cc:Work
         rdf:about="">
        <dc:format>image/svg+xml</dc:format>
        <dc:type
           rdf:resource="http://purl.org/dc/dcmitype/StillImage" />
        <dc:title>Boston Icons</dc:title>
        <cc:license
           rdf:resource="dribbble.com/chrisdiaz" />
        <dc:creator>
          <cc:Agent>
            <dc:title>Christian Díaz</dc:title>
          </cc:Agent>
        </dc:creator>
        <dc:date>2021</dc:date>
        <dc:publisher>
          <cc:Agent>
            <dc:title>Christian Díaz</dc:title>
          </cc:Agent>
        </dc:publisher>
        <dc:identifier>christiandiaz.design [at] gmail [dot] com</dc:identifier>
        <dc:subject>
          <rdf:Bag>
            <rdf:li>GNOME icon Theme</rdf:li>
          </rdf:Bag>
        </dc:subject>
        <dc:description>dribbble.com/chrisdiaz | diazchris.deviantart.com</dc:description>
      </cc:Work>
    </rdf:RDF>
  </metadata>
  <g
     id="layer1"
     inkscape:label="Layer 1"
     inkscape:groupmode="layer">
    <g
       id="g1416">
      <rect
         y="0"
         x="0"
         height="16"
         width="16"
         id="rect827"
         style="fill:#7a8e9e;fill-opacity:1;fill-rule:nonzero;stroke:none;stroke-width:2;stroke-linecap:square;stroke-linejoin:round;stroke-miterlimit:4;stroke-dasharray:none;stroke-dashoffset:0;stroke-opacity:1" />
      <rect
         style="fill:#96a5af;stroke-linejoin:round"
         id="rect1038"
         width="14"
         height="14"
         x="1"
         y="1" />
      <path
         id="path1314"
         style="fill:#ffffff;stroke-linejoin:round"
         d="M 4 3 A 1 1 0 0 0 3 4 A 1 1 0 0 0 4 5 A 1 1 0 0 0 5 4 A 1 1 0 0 0 4 3 z M 8 3 A 1 1 0 0 0 7 4 A 1 1 0 0 0 8 5 A 1 1 0 0 0 9 4 A 1 1 0 0 0 8 3 z M 12 3 A 1 1 0 0 0 11 4 A 1 1 0 0 0 12 5 A 1 1 0 0 0 13 4 A 1 1 0 0 0 12 3 z M 4 7 A 1 1 0 0 0 3 8 A 1 1 0 0 0 4 9 A 1 1 0 0 0 5 8 A 1 1 0 0 0 4 7 z M 8 7 A 1 1 0 0 0 7 8 A 1 1 0 0 0 8 9 A 1 1 0 0 0 9 8 A 1 1 0 0 0 8 7 z M 12 7 A 1 1 0 0 0 11 8 A 1 1 0 0 0 12 9 A 1 1 0 0 0 13 8 A 1 1 0 0 0 12 7 z M 4 11 A 1 1 0 0 0 3 12 A 1 1 0 0 0 4 13 A 1 1 0 0 0 5 12 A 1 1 0 0 0 4 11 z M 8 11 A 1 1 0 0 0 7 12 A 1 1 0 0 0 8 13 A 1 1 0 0 0 9 12 A 1 1 0 0 0 8 11 z M 12 11 A 1 1 0 0 0 11 12 A 1 1 0 0 0 12 13 A 1 1 0 0 0 13 12 A 1 1 0 0 0 12 11 z " />
    </g>
  </g>
</svg>
